X: 9
T: Garrett Barry's
R: jig
M: 6/8
L: 1/8
K: Gmaj
A|: DEF G3|AGE c2A|dcA d2e|g/f/ed cAG|
F3 Gc/A/G|AGE B/c/de|dcA GEA|D3 D2 A:|
|:dcA d2e|g/f/ed e/f/ge|dcA c2d|e/f/gd ecA|
dcA d2e|g/f/ed e/f/ge|dcA GEA|D3 D2 A:|


Tune 544	Setting 26003

